X: 26011
T: Airdrie Lassies
R: jig
B: RSCDS 26-1
Z: 1997 by John Chambers <jc:trillian.mit.edu>
M: 6/8
L: 1/8
%--------------------
K: G
B \
|: "G"G2B dcB | "D7"def "G"gdc | BGB "Bm"dcB |1 "Am"cBc "D7"A2c :|2 "D7"def "G"g3 ||
|: "G"[b3d3B3] "Em"[g3B3] | "A7"{b}a^ga "D7"f=ga \
|1 "G"[g3d3B3] "A7"[e3^c3] | "D7"fef def :|2 "G"[g3B3] "C"[e3c3] | "D7"def "G"[g3B3] |]
%%center Book26/26011-Airdrie_Lassies-1.abc

%%sep 1 1 500
%%sep 1 1 500

